public/icons/email-address.svg

<svg width="35" height="35" viewBox="0 0 35 35" fill="none" xmlns="http://www.w3.org/2000/svg">
<circle opacity="0.1" cx="17.5" cy="17.5" r="17.5" fill="#136AD0"/>
<path d="M11 9H25C26.6568 9 27.9999 10.343 28 11.9997C27.8763 11.9997 27.7505 12.0228 27.6286 12.0715L18.7428 15.6259C18.266 15.8166 17.734 15.8166 17.2572 15.6259L8.37139 12.0715C8.24951 12.0228 8.12371 11.9997 8 11.9997C8.00014 10.343 9.34323 9 11 9Z" fill="#093160"/>
<path d="M8 14.077V22C8 23.6569 9.34315 25 11 25H25C26.6569 25 28 23.6569 28 22V14.077L19.4856 17.4828C18.5319 17.8643 17.4681 17.8643 16.5144 17.4828L8 14.077Z" fill="#093160"/>
</svg>

<svg xmlns="http://www.w3.org/2000/svg" width="35" height="35" fill="none"><circle cx="17.5" cy="17.5" r="17.5" fill="#136AD0" opacity=".1"/><path fill="#093160" d="M11 9h14a3 3 0 0 1 3 3 1 1 0 0 0-.371.072l-8.886 3.554a2 2 0 0 1-1.486 0l-8.886-3.554A1 1 0 0 0 8 12a3 3 0 0 1 3-3"/><path fill="#093160" d="M8 14.077V22a3 3 0 0 0 3 3h14a3 3 0 0 0 3-3v-7.923l-8.514 3.406a4 4 0 0 1-2.972 0z"/></svg>
